X:104
T:Reel 104
M:4/4
K:Dmaj
L:1/8
FDDF EDED|A,D (3DCD dABG|FDDF EDEF|GEFD EDB,D:|FAAc BdAF|E>D (3DDD BcdB|FAAc dABA|GEED CEEA,|FAAc dcdB|AFDF EFGA|FAAc d2cd| (3Bcd AF EFED|
